X:1
T:Spotted Pony
L:1/8
Q:1/2=110
M:2/2
I:linebreak $
K:D
V:1 treble 
V:1
|:"D" f2 a2 f4 |"G" efed BcdB |"D" ABde fede | f a3"A7" e4 |"D" f2 a2 f4 |"G" efed BcdB | %6
"D" ABAB dBAG |$"A7" FD E2"D" D4 ::"D" D2 DD"A7" E2 EE |"D" FD F2"G" G4 |"D" ABde fede | %11
 f a3"A7" e4 |"D" D2 DD"A7" E2 EE |"D" FD F2"G" G4 |$"D" ABAB dBAG |"A7" FD E2"D" D4 :| %16
